images/16759012.svg

<?xml version="1.0" encoding="UTF-8"?>
<svg xmlns="http://www.w3.org/2000/svg" xmlns:xlink="http://www.w3.org/1999/xlink" width="300pt" height="300pt" viewBox="0 0 300 300" version="1.1">
<defs>
<g>
<symbol overflow="visible" id="glyph0-0">
<path style="stroke:none;" d="M 0.453125 1.59375 L 0.453125 -6.34375 L 4.953125 -6.34375 L 4.953125 1.59375 Z M 0.953125 1.09375 L 4.453125 1.09375 L 4.453125 -5.84375 L 0.953125 -5.84375 Z M 0.953125 1.09375 "/>
</symbol>
<symbol overflow="visible" id="glyph0-1">
<path style="stroke:none;" d="M 3.546875 -5.953125 C 2.898438 -5.953125 2.382812 -5.710938 2 -5.234375 C 1.625 -4.753906 1.4375 -4.101562 1.4375 -3.28125 C 1.4375 -2.445312 1.625 -1.789062 2 -1.3125 C 2.382812 -0.832031 2.898438 -0.59375 3.546875 -0.59375 C 4.191406 -0.59375 4.703125 -0.832031 5.078125 -1.3125 C 5.453125 -1.789062 5.640625 -2.445312 5.640625 -3.28125 C 5.640625 -4.101562 5.453125 -4.753906 5.078125 -5.234375 C 4.703125 -5.710938 4.191406 -5.953125 3.546875 -5.953125 Z M 3.546875 -6.6875 C 4.460938 -6.6875 5.195312 -6.375 5.75 -5.75 C 6.300781 -5.132812 6.578125 -4.3125 6.578125 -3.28125 C 6.578125 -2.238281 6.300781 -1.410156 5.75 -0.796875 C 5.195312 -0.179688 4.460938 0.125 3.546875 0.125 C 2.617188 0.125 1.878906 -0.179688 1.328125 -0.796875 C 0.773438 -1.410156 0.5 -2.238281 0.5 -3.28125 C 0.5 -4.3125 0.773438 -5.132812 1.328125 -5.75 C 1.878906 -6.375 2.617188 -6.6875 3.546875 -6.6875 Z M 3.546875 -6.6875 "/>
</symbol>
</g>
</defs>
<g id="surface46257">
<rect x="0" y="0" width="300" height="300" style="fill:rgb(100%,100%,100%);fill-opacity:1;stroke:none;"/>
<path style="fill:none;stroke-width:1.2;stroke-linecap:butt;stroke-linejoin:miter;stroke:rgb(0%,0%,0%);stroke-opacity:1;stroke-miterlimit:10;" d="M 35.25 150.15625 L 51.472656 163.101562 "/>
<path style="fill:none;stroke-width:1.2;stroke-linecap:butt;stroke-linejoin:miter;stroke:rgb(0%,0%,0%);stroke-opacity:1;stroke-miterlimit:10;" d="M 51.472656 163.101562 L 70.796875 155.523438 "/>
<path style="fill:none;stroke-width:1.2;stroke-linecap:butt;stroke-linejoin:miter;stroke:rgb(0%,0%,0%);stroke-opacity:1;stroke-miterlimit:10;" d="M 70.796875 155.523438 L 87.019531 168.46875 "/>
<path style="fill:none;stroke-width:1.2;stroke-linecap:butt;stroke-linejoin:miter;stroke:rgb(0%,0%,0%);stroke-opacity:1;stroke-miterlimit:10;" d="M 87.019531 168.46875 L 106.34375 160.890625 "/>
<path style="fill:none;stroke-width:1.2;stroke-linecap:butt;stroke-linejoin:miter;stroke:rgb(0%,0%,0%);stroke-opacity:1;stroke-miterlimit:10;" d="M 106.34375 160.890625 L 122.566406 173.835938 "/>
<path style="fill:none;stroke-width:1.2;stroke-linecap:butt;stroke-linejoin:miter;stroke:rgb(0%,0%,0%);stroke-opacity:1;stroke-miterlimit:10;" d="M 122.566406 173.835938 L 141.886719 166.257812 "/>
<path style="fill:none;stroke-width:1.2;stroke-linecap:butt;stroke-linejoin:miter;stroke:rgb(0%,0%,0%);stroke-opacity:1;stroke-miterlimit:10;" d="M 141.886719 166.257812 L 144.988281 145.738281 "/>
<path style="fill:none;stroke-width:1.2;stroke-linecap:butt;stroke-linejoin:miter;stroke:rgb(0%,0%,0%);stroke-opacity:1;stroke-miterlimit:10;" d="M 147.027344 164.9375 L 149.507812 148.519531 "/>
<path style="fill:none;stroke-width:1.2;stroke-linecap:butt;stroke-linejoin:miter;stroke:rgb(100%,0%,0%);stroke-opacity:1;stroke-miterlimit:10;" d="M 158.113281 179.203125 L 150 172.730469 "/>
<path style="fill:none;stroke-width:1.2;stroke-linecap:butt;stroke-linejoin:miter;stroke:rgb(0%,0%,0%);stroke-opacity:1;stroke-miterlimit:10;" d="M 150 172.730469 L 141.886719 166.257812 "/>
<path style="fill:none;stroke-width:1.2;stroke-linecap:butt;stroke-linejoin:miter;stroke:rgb(0%,0%,0%);stroke-opacity:1;stroke-miterlimit:10;" d="M 144.988281 145.738281 L 164.308594 138.160156 "/>
<path style="fill:none;stroke-width:1.2;stroke-linecap:butt;stroke-linejoin:miter;stroke:rgb(0%,0%,0%);stroke-opacity:1;stroke-miterlimit:10;" d="M 164.308594 138.160156 L 167.410156 117.636719 "/>
<path style="fill:none;stroke-width:1.2;stroke-linecap:butt;stroke-linejoin:miter;stroke:rgb(0%,0%,0%);stroke-opacity:1;stroke-miterlimit:10;" d="M 169.449219 136.835938 L 171.929688 120.417969 "/>
<path style="fill:none;stroke-width:1.2;stroke-linecap:butt;stroke-linejoin:miter;stroke:rgb(0%,0%,0%);stroke-opacity:1;stroke-miterlimit:10;" d="M 180.535156 151.105469 L 164.308594 138.160156 "/>
<path style="fill:none;stroke-width:1.2;stroke-linecap:butt;stroke-linejoin:miter;stroke:rgb(0%,0%,0%);stroke-opacity:1;stroke-miterlimit:10;" d="M 167.410156 117.636719 L 186.730469 110.058594 "/>
<path style="fill:none;stroke-width:1.2;stroke-linecap:butt;stroke-linejoin:miter;stroke:rgb(0%,0%,0%);stroke-opacity:1;stroke-miterlimit:10;" d="M 186.730469 110.058594 L 202.957031 123.003906 "/>
<path style="fill:none;stroke-width:1.2;stroke-linecap:butt;stroke-linejoin:miter;stroke:rgb(0%,0%,0%);stroke-opacity:1;stroke-miterlimit:10;" d="M 185.308594 115.171875 L 198.285156 125.527344 "/>
<path style="fill:none;stroke-width:1.2;stroke-linecap:butt;stroke-linejoin:miter;stroke:rgb(0%,0%,0%);stroke-opacity:1;stroke-miterlimit:10;" d="M 186.730469 110.058594 L 188.28125 99.796875 "/>
<path style="fill:none;stroke-width:1.2;stroke-linecap:butt;stroke-linejoin:miter;stroke:rgb(100%,0%,0%);stroke-opacity:1;stroke-miterlimit:10;" d="M 188.28125 99.796875 L 189.832031 89.535156 "/>
<path style="fill:none;stroke-width:1.2;stroke-linecap:butt;stroke-linejoin:miter;stroke:rgb(0%,0%,0%);stroke-opacity:1;stroke-miterlimit:10;" d="M 202.957031 123.003906 L 199.855469 143.527344 "/>
<path style="fill:none;stroke-width:1.2;stroke-linecap:butt;stroke-linejoin:miter;stroke:rgb(0%,0%,0%);stroke-opacity:1;stroke-miterlimit:10;" d="M 202.957031 123.003906 L 212.617188 119.214844 "/>
<path style="fill:none;stroke-width:1.2;stroke-linecap:butt;stroke-linejoin:miter;stroke:rgb(100%,0%,0%);stroke-opacity:1;stroke-miterlimit:10;" d="M 212.617188 119.214844 L 222.277344 115.425781 "/>
<path style="fill:none;stroke-width:1.2;stroke-linecap:butt;stroke-linejoin:miter;stroke:rgb(0%,0%,0%);stroke-opacity:1;stroke-miterlimit:10;" d="M 199.855469 143.527344 L 180.535156 151.105469 "/>
<path style="fill:none;stroke-width:1.2;stroke-linecap:butt;stroke-linejoin:miter;stroke:rgb(0%,0%,0%);stroke-opacity:1;stroke-miterlimit:10;" d="M 196.140625 139.738281 L 180.683594 145.800781 "/>
<path style="fill:none;stroke-width:1.2;stroke-linecap:butt;stroke-linejoin:miter;stroke:rgb(0%,0%,0%);stroke-opacity:1;stroke-miterlimit:10;" d="M 180.535156 151.105469 L 177.433594 171.628906 "/>
<path style="fill:none;stroke-width:1.2;stroke-linecap:butt;stroke-linejoin:miter;stroke:rgb(0%,0%,0%);stroke-opacity:1;stroke-miterlimit:10;" d="M 177.433594 171.628906 L 167.773438 175.414062 "/>
<path style="fill:none;stroke-width:1.2;stroke-linecap:butt;stroke-linejoin:miter;stroke:rgb(100%,0%,0%);stroke-opacity:1;stroke-miterlimit:10;" d="M 167.773438 175.414062 L 158.113281 179.203125 "/>
<path style="fill:none;stroke-width:1.2;stroke-linecap:butt;stroke-linejoin:miter;stroke:rgb(0%,0%,0%);stroke-opacity:1;stroke-miterlimit:10;" d="M 177.433594 171.628906 L 193.65625 184.574219 "/>
<path style=" stroke:none;fill-rule:nonzero;fill:rgb(100%,100%,100%);fill-opacity:1;" d="M 154.113281 173.703125 L 162.113281 173.703125 L 162.113281 184.703125 L 154.113281 184.703125 Z M 154.113281 173.703125 "/>
<g style="fill:rgb(100%,0%,0%);fill-opacity:1;">
  <use xlink:href="#glyph0-1" x="154.113281" y="182.366211"/>
</g>
<path style="fill:none;stroke-width:1.2;stroke-linecap:butt;stroke-linejoin:miter;stroke:rgb(0%,0%,0%);stroke-opacity:1;stroke-miterlimit:10;" d="M 193.65625 184.574219 L 190.558594 205.09375 "/>
<path style="fill:none;stroke-width:1.2;stroke-linecap:butt;stroke-linejoin:miter;stroke:rgb(0%,0%,0%);stroke-opacity:1;stroke-miterlimit:10;" d="M 193.65625 184.574219 L 212.980469 176.996094 "/>
<path style="fill:none;stroke-width:1.2;stroke-linecap:butt;stroke-linejoin:miter;stroke:rgb(0%,0%,0%);stroke-opacity:1;stroke-miterlimit:10;" d="M 189.667969 202.820312 L 180.007812 206.609375 "/>
<path style="fill:none;stroke-width:1.2;stroke-linecap:butt;stroke-linejoin:miter;stroke:rgb(100%,0%,0%);stroke-opacity:1;stroke-miterlimit:10;" d="M 180.007812 206.609375 L 170.34375 210.398438 "/>
<path style="fill:none;stroke-width:1.2;stroke-linecap:butt;stroke-linejoin:miter;stroke:rgb(0%,0%,0%);stroke-opacity:1;stroke-miterlimit:10;" d="M 191.449219 207.367188 L 181.789062 211.15625 "/>
<path style="fill:none;stroke-width:1.2;stroke-linecap:butt;stroke-linejoin:miter;stroke:rgb(100%,0%,0%);stroke-opacity:1;stroke-miterlimit:10;" d="M 181.789062 211.15625 L 172.128906 214.945312 "/>
<path style="fill:none;stroke-width:1.2;stroke-linecap:butt;stroke-linejoin:miter;stroke:rgb(0%,0%,0%);stroke-opacity:1;stroke-miterlimit:10;" d="M 190.558594 205.09375 L 206.78125 218.039062 "/>
<path style=" stroke:none;fill-rule:nonzero;fill:rgb(100%,100%,100%);fill-opacity:1;" d="M 163.234375 207.171875 L 171.234375 207.171875 L 171.234375 218.171875 L 163.234375 218.171875 Z M 163.234375 207.171875 "/>
<g style="fill:rgb(100%,0%,0%);fill-opacity:1;">
  <use xlink:href="#glyph0-1" x="163.234375" y="215.834961"/>
</g>
<path style="fill:none;stroke-width:1.2;stroke-linecap:butt;stroke-linejoin:miter;stroke:rgb(0%,0%,0%);stroke-opacity:1;stroke-miterlimit:10;" d="M 215.394531 177.359375 L 216.945312 167.097656 "/>
<path style="fill:none;stroke-width:1.2;stroke-linecap:butt;stroke-linejoin:miter;stroke:rgb(100%,0%,0%);stroke-opacity:1;stroke-miterlimit:10;" d="M 216.945312 167.097656 L 218.492188 156.835938 "/>
<path style="fill:none;stroke-width:1.2;stroke-linecap:butt;stroke-linejoin:miter;stroke:rgb(0%,0%,0%);stroke-opacity:1;stroke-miterlimit:10;" d="M 210.566406 176.628906 L 212.117188 166.371094 "/>
<path style="fill:none;stroke-width:1.2;stroke-linecap:butt;stroke-linejoin:miter;stroke:rgb(100%,0%,0%);stroke-opacity:1;stroke-miterlimit:10;" d="M 212.117188 166.371094 L 213.664062 156.109375 "/>
<path style="fill:none;stroke-width:1.2;stroke-linecap:butt;stroke-linejoin:miter;stroke:rgb(0%,0%,0%);stroke-opacity:1;stroke-miterlimit:10;" d="M 212.980469 176.996094 L 221.09375 183.46875 "/>
<path style="fill:none;stroke-width:1.2;stroke-linecap:butt;stroke-linejoin:miter;stroke:rgb(100%,0%,0%);stroke-opacity:1;stroke-miterlimit:10;" d="M 221.09375 183.46875 L 229.203125 189.941406 "/>
<path style=" stroke:none;fill-rule:nonzero;fill:rgb(100%,100%,100%);fill-opacity:1;" d="M 212.078125 150.972656 L 220.078125 150.972656 L 220.078125 161.972656 L 212.078125 161.972656 Z M 212.078125 150.972656 "/>
<g style="fill:rgb(100%,0%,0%);fill-opacity:1;">
  <use xlink:href="#glyph0-1" x="212.078125" y="159.635742"/>
</g>
<path style="fill:none;stroke-width:1.2;stroke-linecap:butt;stroke-linejoin:miter;stroke:rgb(100%,0%,0%);stroke-opacity:1;stroke-miterlimit:10;" d="M 229.203125 189.941406 L 238.863281 186.152344 "/>
<path style="fill:none;stroke-width:1.2;stroke-linecap:butt;stroke-linejoin:miter;stroke:rgb(0%,0%,0%);stroke-opacity:1;stroke-miterlimit:10;" d="M 238.863281 186.152344 L 248.527344 182.363281 "/>
<path style=" stroke:none;fill-rule:nonzero;fill:rgb(100%,100%,100%);fill-opacity:1;" d="M 225.203125 184.441406 L 233.203125 184.441406 L 233.203125 195.441406 L 225.203125 195.441406 Z M 225.203125 184.441406 "/>
<g style="fill:rgb(100%,0%,0%);fill-opacity:1;">
  <use xlink:href="#glyph0-1" x="225.203125" y="193.104492"/>
</g>
<path style="fill:none;stroke-width:1.2;stroke-linecap:butt;stroke-linejoin:miter;stroke:rgb(0%,0%,0%);stroke-opacity:1;stroke-miterlimit:10;" d="M 248.527344 182.363281 L 264.75 195.308594 "/>
<path style="fill:none;stroke-width:1.2;stroke-linecap:butt;stroke-linejoin:miter;stroke:rgb(100%,0%,0%);stroke-opacity:1;stroke-miterlimit:10;" d="M 222.277344 115.425781 L 230.390625 121.898438 "/>
<path style="fill:none;stroke-width:1.2;stroke-linecap:butt;stroke-linejoin:miter;stroke:rgb(0%,0%,0%);stroke-opacity:1;stroke-miterlimit:10;" d="M 230.390625 121.898438 L 238.5 128.371094 "/>
<path style=" stroke:none;fill-rule:nonzero;fill:rgb(100%,100%,100%);fill-opacity:1;" d="M 218.277344 109.925781 L 226.277344 109.925781 L 226.277344 120.925781 L 218.277344 120.925781 Z M 218.277344 109.925781 "/>
<g style="fill:rgb(100%,0%,0%);fill-opacity:1;">
  <use xlink:href="#glyph0-1" x="218.277344" y="118.588867"/>
</g>
<path style="fill:none;stroke-width:1.2;stroke-linecap:butt;stroke-linejoin:miter;stroke:rgb(100%,0%,0%);stroke-opacity:1;stroke-miterlimit:10;" d="M 189.832031 89.535156 L 199.492188 85.75 "/>
<path style="fill:none;stroke-width:1.2;stroke-linecap:butt;stroke-linejoin:miter;stroke:rgb(0%,0%,0%);stroke-opacity:1;stroke-miterlimit:10;" d="M 199.492188 85.75 L 209.152344 81.960938 "/>
<path style=" stroke:none;fill-rule:nonzero;fill:rgb(100%,100%,100%);fill-opacity:1;" d="M 185.832031 84.035156 L 193.832031 84.035156 L 193.832031 95.035156 L 185.832031 95.035156 Z M 185.832031 84.035156 "/>
<g style="fill:rgb(100%,0%,0%);fill-opacity:1;">
  <use xlink:href="#glyph0-1" x="185.832031" y="92.698242"/>
</g>
</g>
</svg>

<svg xmlns="http://www.w3.org/2000/svg" xmlns:xlink="http://www.w3.org/1999/xlink" width="300pt" height="300pt" viewBox="0 0 300 300"><defs><symbol overflow="visible"><path d="M.453 1.594v-7.938h4.5v7.938zm.5-.5h3.5v-6.938h-3.5zm0 0"/></symbol><symbol overflow="visible" id="a"><path d="M3.547-5.953c-.65 0-1.164.242-1.547.72-.375.48-.563 1.13-.563 1.952 0 .835.188 1.49.563 1.967.383.48.898.72 1.547.72.644 0 1.156-.24 1.53-.72.376-.476.564-1.132.564-1.968 0-.822-.187-1.474-.562-1.954-.375-.477-.887-.72-1.53-.72zm0-.734c.914 0 1.648.312 2.203.937.55.617.828 1.438.828 2.47 0 1.042-.277 1.87-.828 2.483-.555.617-1.29.922-2.203.922-.93 0-1.668-.305-2.22-.922C.774-1.41.5-2.237.5-3.28c0-1.033.273-1.853.828-2.47.55-.625 1.29-.938 2.22-.938zm0 0"/></symbol></defs><g><path fill="#fff" d="M0 0h300v300H0z"/><path d="M35.25 150.156l16.223 12.946M51.473 163.102l19.324-7.58M70.797 155.523L87.02 168.47M87.02 168.47l19.324-7.58M106.344 160.89l16.222 12.946M122.566 173.836l19.32-7.578M141.887 166.258l3.1-20.52M147.027 164.938l2.48-16.418" stroke-width="1.2" stroke="#000" stroke-miterlimit="10" fill="none"/><path d="M158.113 179.203L150 172.73" stroke-width="1.2" stroke="#f00" stroke-miterlimit="10" fill="none"/><path d="M150 172.73l-8.113-6.472M144.988 145.738l19.32-7.578M164.31 138.16l3.1-20.523M169.45 136.836l2.48-16.418M180.535 151.105L164.31 138.16M167.41 117.637l19.32-7.578M186.73 110.06l16.227 12.944M185.31 115.172l12.975 10.355M186.73 110.06l1.55-10.263" stroke-width="1.2" stroke="#000" stroke-miterlimit="10" fill="none"/><path d="M188.28 99.797l1.552-10.262" stroke-width="1.2" stroke="#f00" stroke-miterlimit="10" fill="none"/><path d="M202.957 123.004l-3.102 20.523M202.957 123.004l9.66-3.79" stroke-width="1.2" stroke="#000" stroke-miterlimit="10" fill="none"/><path d="M212.617 119.215l9.66-3.79" stroke-width="1.2" stroke="#f00" stroke-miterlimit="10" fill="none"/><path d="M199.855 143.527l-19.32 7.578M196.14 139.738l-15.456 6.063M180.535 151.105l-3.1 20.524M177.434 171.63l-9.66 3.784" stroke-width="1.2" stroke="#000" stroke-miterlimit="10" fill="none"/><path d="M167.773 175.414l-9.66 3.79" stroke-width="1.2" stroke="#f00" stroke-miterlimit="10" fill="none"/><path d="M177.434 171.63l16.222 12.944" stroke-width="1.2" stroke="#000" stroke-miterlimit="10" fill="none"/><path d="M154.113 173.703h8v11h-8zm0 0" fill="#fff"/><use xlink:href="#a" x="154.113" y="182.366" fill="#f00"/><path d="M193.656 184.574l-3.097 20.52M193.656 184.574l19.324-7.578M189.668 202.82l-9.66 3.79" stroke-width="1.2" stroke="#000" stroke-miterlimit="10" fill="none"/><path d="M180.008 206.61l-9.664 3.788" stroke-width="1.2" stroke="#f00" stroke-miterlimit="10" fill="none"/><path d="M191.45 207.367l-9.66 3.79" stroke-width="1.2" stroke="#000" stroke-miterlimit="10" fill="none"/><path d="M181.79 211.156l-9.66 3.79" stroke-width="1.2" stroke="#f00" stroke-miterlimit="10" fill="none"/><path d="M190.56 205.094l16.22 12.945" stroke-width="1.2" stroke="#000" stroke-miterlimit="10" fill="none"/><path d="M163.234 207.172h8v11h-8zm0 0" fill="#fff"/><use xlink:href="#a" x="163.234" y="215.835" fill="#f00"/><path d="M215.395 177.36l1.55-10.262" stroke-width="1.2" stroke="#000" stroke-miterlimit="10" fill="none"/><path d="M216.945 167.098l1.547-10.262" stroke-width="1.2" stroke="#f00" stroke-miterlimit="10" fill="none"/><path d="M210.566 176.63l1.55-10.26" stroke-width="1.2" stroke="#000" stroke-miterlimit="10" fill="none"/><path d="M212.117 166.37l1.547-10.26" stroke-width="1.2" stroke="#f00" stroke-miterlimit="10" fill="none"/><path d="M212.98 176.996l8.114 6.473" stroke-width="1.2" stroke="#000" stroke-miterlimit="10" fill="none"/><path d="M221.094 183.47l8.11 6.47" stroke-width="1.2" stroke="#f00" stroke-miterlimit="10" fill="none"/><path d="M212.078 150.973h8v11h-8zm0 0" fill="#fff"/><use xlink:href="#a" x="212.078" y="159.636" fill="#f00"/><path d="M229.203 189.94l9.66-3.788" stroke-width="1.2" stroke="#f00" stroke-miterlimit="10" fill="none"/><path d="M238.863 186.152l9.664-3.79" stroke-width="1.2" stroke="#000" stroke-miterlimit="10" fill="none"/><path d="M225.203 184.44h8v11h-8zm0 0" fill="#fff"/><use xlink:href="#a" x="225.203" y="193.104" fill="#f00"/><path d="M248.527 182.363l16.223 12.946" stroke-width="1.2" stroke="#000" stroke-miterlimit="10" fill="none"/><path d="M222.277 115.426l8.114 6.472" stroke-width="1.2" stroke="#f00" stroke-miterlimit="10" fill="none"/><path d="M230.39 121.898l8.11 6.473" stroke-width="1.2" stroke="#000" stroke-miterlimit="10" fill="none"/><path d="M218.277 109.926h8v11h-8zm0 0" fill="#fff"/><use xlink:href="#a" x="218.277" y="118.589" fill="#f00"/><path d="M189.832 89.535l9.66-3.785" stroke-width="1.2" stroke="#f00" stroke-miterlimit="10" fill="none"/><path d="M199.492 85.75l9.66-3.79" stroke-width="1.2" stroke="#000" stroke-miterlimit="10" fill="none"/><path d="M185.832 84.035h8v11h-8zm0 0" fill="#fff"/><use xlink:href="#a" x="185.832" y="92.698" fill="#f00"/></g></svg>
